X:112
T:March of the Meeatoiteen Bull
B:NFID.087a
112march
S:JD
L:1/8
M:C
R:march % A-B-C-B
Q:280
K:A=G
e2|A2BA e2ef|edBd e2g2|G2GB d2e2|dBGB d2e2|
A2BA e2ef|edBd e2a2|gfed efed|B2A2A2:|
%B
e2|a3g e2a2|edef g2a2|G2GB d2de|dBGB d2e2|
a3g e2a2|edef g2a2|gfed eaed|B2A2A2:|
%C
e2|A2AA eA~A2|cAAA e2g2|G2GG dG~G2|BAGB d2e2|
A2AA eA~A2|cAAA e2a2|gfed eaed|B2A2A2:|

%%%

